X: 2
T: The Champaign Jig Goes To Columbia
R: jig
M: 6/8
L: 1/8
K: Dmaj
|:de|~f3 dAF|ABd F2E|FAd dcd|ecA gfe|
~f3 dAF|ABd F2E|EDf dAF|EDC D :|
|:FA|d2d afd|cBA ecA|BAG dBG|FED EFA|
~f3 dAF|ABd F2E|EDf dAF|EDC D :|


Tune 2438	Setting 27769

